X:144
T:Michael Turner's Waltz
Z:Jack Campin, http://www.campin.me.uk/
F:Jack Campin's Nine-Note Tunebook
% last edit 24-02-2013
C:Mozart 
M:3/4
L:1/8
Q:3/4=50
K:D
DE|F2 FD GE|A2 A2 dc|B2 B2 dB|A2 A2
DE|F2 FD GE|A2 A2 GE|D2 DF EC|D4 :|
EF|G2 GA FG|E4    FG|A2 AB GA|F2 F2
dc|B2 Bc dB|A2 A2 DE|F2 FG EF|D4 :|

